X: 21989
T: Kitty Sean Cunningham's
R: barndance
M: 4/4
K: Gmajor
dgdB GDDG|F2 =F2 E2 AB|cBcA FDEF|Gd^ce dAB=c|
d2 gd GBDG|F2 =F2 E4|cGce dcAF|G2 d2 G2:|
F2 F^E FAcA|G2 AF GABc|dAFA DFAd|
[1 B^ABc BGFE|FDF^E FAcA|G2 GF GABc|dAFA D2 AF|G2 FA G2:|
[2 BcBA Bdef|g2 gf gdBd|c2 cB c2 AB|cGce dcAD|G2 d2 G2||

